!! 00000] TT[WS
!!!OTL: Da suanzao
!!!ARE: Asia, China, Shanxi Xingxian
!! Ethnic Group: Han
!! WII, 178 (2)
!!!SCT: J0670
!!!YEM: Copyright 1995, estate of Helmut Schaffrath.
**kern
*ICvox
*Ivox
*M2/4
*k[f#c#]
*D:
{8a
16b
16a
4f#
=1
8dd
8ff#
8ee
8ff#
=2
8a
8dd
8b
8a
=3
8f#
8e
4f#}
=4
{8ee
8dd
4ee
=5
8ff#
16ee
16dd
4a
=6
8dd
16ee
16dd
16b
16a
8f#
=7
2a}
==
!!!AGN: Xiaodiao. Laodong, Fengsu
!!!ONB: ESAC (Essen Associative Code) Database: CHINA
!!!AMT: simple duple
!!!AIN: vox
!!!EED: Helmut Schaffrath
!!!EEV: 1.0
*-
